X: 18
T:La Fitz James
C:Nouvelle mthode de galoubet, Chdeville, Paris, vers 1800
Z:Transcrit et/ou corrig par Michel BELLON - 2006-04-09
Z:Pour toute observation mailto:galouvielle@free.fr
M:6/8
L:1/8
Q:3/8=120
K:FMaj
V:1
c2B | AFA BGB | A2F c2B | AFA BGE | F3 :: f2c | AGF GAB | A2F f2c | AGF GAG | F3 :|
F2G | AGA BAB | c3 BcB | ABA GAG | A2F F2G | AGA BAB | c3 BcB | ABA GAG | F3 ||
f2c | f2F GAB | AGF f2c | f2F GAG | F3 f2c | f2F GAB | AGF f2c | f2F GAG | F3 |]
